X: 27122
T: Miss Mary MacDonald's
R: reel
M: 4/4
K: Gminor
GGBG AFFA|GGBG AGBG|EGBG AFFA|GcBA G3:|
|:B|GGgB A=FFA|GGgd gagd|fgfc AFFA|GcBA G2G:|

